;FLAVOR:RepRap
;TIME:5235
;Filament used: 3.12823m
;Layer height: 0.1
;Generated with Cura_SteamEngine 2.4.0
M190 S60
M104 S200
M109 S200
G21 ;metric values
G90 ;absolute positioning
M82 ;set extruder to absolute mode
M107 ;start with the fan off
G28 X0 Y0 ;move X/Y to min endstops
G28 Z0 ;move Z to min endstops
G1 Z15.0 F9000 ;move the platform down 15mm
G92 E0 ;zero the extruded length
G1 F200 E3 ;extrude 3mm of feed stock
G92 E0 ;zero the extruded length again
G1 F9000
;Put printing message on LCD screen
M117 Printing...
;LAYER_COUNT:222
;LAYER:0
M107
G1 F1500 E-6.5
G0 F3600 X15.356 Y19.005 Z0.3
;TYPE:SKIRT
G1 F1500 E0
G1 F1800 X16.209 Y18.318 E0.05464
G1 X17.11 Y17.695 E0.10929
G1 X18.054 Y17.14 E0.16393
G1 X19.036 Y16.655 E0.21857
G1 X20.051 Y16.243 E0.27322
G1 X21.093 Y15.906 E0.32786
G1 X22.157 Y15.646 E0.3825
G1 X23.237 Y15.464 E0.43714
G1 X24.328 Y15.361 E0.49181
G1 X25.184 Y15.337 E0.53454
G1 X26.521 Y15.337 E0.60124
G1 X27.616 Y15.377 E0.65591
G1 X28.704 Y15.497 E0.71052
G1 X29.781 Y15.696 E0.76516
G1 X30.841 Y15.973 E0.81982
G1 X31.878 Y16.326 E0.87447
G1 X32.886 Y16.754 E0.9291
G1 X33.86 Y17.255 E0.98375
G1 X34.795 Y17.825 E1.03838
G1 X35.686 Y18.462 E1.09302
G1 X36.528 Y19.163 E1.14768
G1 X37.317 Y19.923 E1.20234
G1 X38.048 Y20.738 E1.25696
G1 X38.717 Y21.605 E1.31159
G1 X39.322 Y22.518 E1.36624
G1 X39.601 Y23.016 E1.39471
G1 X40.009 Y22.315 E1.43518
G1 X40.628 Y21.412 E1.4898
G1 X41.312 Y20.556 E1.54446
G1 X42.056 Y19.752 E1.59912
G1 X42.856 Y19.005 E1.65372
G1 X43.709 Y18.318 E1.70836
G1 X44.61 Y17.695 E1.76302
G1 X45.554 Y17.14 E1.81765
G1 X46.536 Y16.655 E1.87229
G1 X47.551 Y16.243 E1.92694
G1 X48.593 Y15.906 E1.98158
G1 X49.657 Y15.646 E2.03622
G1 X50.737 Y15.464 E2.09086
G1 X51.828 Y15.361 E2.14554
G1 X52.684 Y15.337 E2.18826
G1 X54.021 Y15.337 E2.25496
G1 X55.116 Y15.377 E2.30963
G1 X56.204 Y15.497 E2.36424
G1 X57.281 Y15.696 E2.41888
G1 X58.341 Y15.973 E2.47354
G1 X59.378 Y16.326 E2.52819
G1 X60.386 Y16.754 E2.58283
G1 X61.36 Y17.255 E2.63747
G1 X62.295 Y17.825 E2.6921
G1 X63.186 Y18.462 E2.74675
G1 X64.028 Y19.163 E2.80141
G1 X64.817 Y19.923 E2.85606
G1 X65.548 Y20.738 E2.91068
G1 X66.217 Y21.605 E2.96532
G1 X66.822 Y22.518 E3.01996
G1 X67.358 Y23.473 E3.07459
G1 X67.824 Y24.465 E3.12927
G1 X68.136 Y25.262 E3.17198
G1 X68.662 Y26.725 E3.24954
G1 X68.995 Y27.769 E3.30421
G1 X69.251 Y28.834 E3.35886
G1 X69.428 Y29.914 E3.41346
G1 X69.526 Y31.005 E3.46811
G1 X69.544 Y32.1 E3.52274
G1 X69.482 Y33.194 E3.57741
G1 X69.341 Y34.28 E3.63205
G1 X69.12 Y35.353 E3.6867
G1 X68.822 Y36.407 E3.74135
G1 X68.519 Y37.24 E3.78557
G1 X68.554 Y37.28 E3.78822
G1 X69.217 Y38.151 E3.84283
G1 X69.816 Y39.068 E3.89748
G1 X70.346 Y40.027 E3.95214
G1 X70.804 Y41.021 E4.00674
G1 X71.189 Y42.047 E4.06142
G1 X71.498 Y43.098 E4.11607
G1 X71.729 Y44.168 E4.17068
G1 X71.882 Y45.253 E4.22535
G1 X71.955 Y46.346 E4.28
G1 X71.948 Y47.441 E4.33463
G1 X71.862 Y48.533 E4.38928
G1 X71.691 Y49.636 E4.44497
G1 X71.567 Y50.28 E4.47769
G1 X71.321 Y51.347 E4.53232
G1 X70.998 Y52.394 E4.58698
G1 X70.599 Y53.414 E4.64162
G1 X70.584 Y53.445 E4.64334
G1 X70.586 Y66.772 E5.30823
G1 X70.675 Y67.015 E5.32114
G1 X71.352 Y69.094 E5.43022
G1 X71.653 Y70.148 E5.48491
G1 X71.876 Y71.22 E5.53954
G1 X72.02 Y72.306 E5.59419
G1 X72.085 Y73.399 E5.64882
G1 X72.07 Y74.494 E5.70345
G1 X72.003 Y75.339 E5.74574
G1 X71.835 Y76.905 E5.82432
G1 X71.679 Y77.989 E5.87896
G1 X71.444 Y79.059 E5.93361
G1 X71.131 Y80.108 E5.98822
G1 X70.743 Y81.133 E6.0429
G1 X70.281 Y82.126 E6.09754
G1 X69.895 Y82.834 E6.13777
G1 X69.147 Y84.123 E6.21213
G1 X68.563 Y85.049 E6.26675
G1 X67.913 Y85.931 E6.32141
G1 X67.2 Y86.763 E6.37607
G1 X66.429 Y87.54 E6.43068
G1 X65.603 Y88.259 E6.48532
G1 X64.997 Y88.724 E6.52343
G1 X63.742 Y89.637 E6.60085
G1 X62.834 Y90.248 E6.65546
G1 X61.883 Y90.792 E6.71011
G1 X60.895 Y91.265 E6.76476
G1 X59.875 Y91.664 E6.81941
G1 X58.829 Y91.988 E6.87404
G1 X57.946 Y92.198 E6.91932
G1 X56.437 Y92.509 E6.99619
G1 X55.357 Y92.691 E7.05083
G1 X54.266 Y92.793 E7.10549
G1 X53.171 Y92.816 E7.16014
G1 X52.077 Y92.759 E7.21479
G1 X50.991 Y92.622 E7.2694
G1 X50.341 Y92.501 E7.30239
G1 X48.838 Y92.187 E7.37899
G1 X47.775 Y91.924 E7.43362
G1 X46.734 Y91.584 E7.48826
G1 X46.031 Y91.296 E7.52616
G1 X32.698 Y91.298 E8.19135
G1 X31.803 Y91.647 E8.23927
G1 X30.756 Y91.97 E8.29394
G1 X29.943 Y92.165 E8.33565
G1 X28.391 Y92.491 E8.41477
G1 X27.312 Y92.677 E8.46939
G1 X26.222 Y92.783 E8.52403
G1 X25.127 Y92.81 E8.57868
G1 X24.033 Y92.757 E8.63332
G1 X22.946 Y92.624 E8.68796
G1 X22.226 Y92.491 E8.72448
G1 X20.74 Y92.179 E8.80024
G1 X19.677 Y91.915 E8.85488
G1 X18.636 Y91.574 E8.90953
G1 X17.623 Y91.158 E8.96417
G1 X16.643 Y90.669 E9.01881
G1 X15.701 Y90.11 E9.07346
G1 X15.012 Y89.639 E9.1151
G1 X13.765 Y88.734 E9.19197
G1 X12.902 Y88.059 E9.24663
G1 X12.091 Y87.322 E9.3013
G1 X11.337 Y86.529 E9.35589
G1 X10.642 Y85.682 E9.41055
G1 X10.01 Y84.787 E9.46521
G1 X9.586 Y84.096 E9.50566
G1 X8.826 Y82.78 E9.58148
G1 X8.313 Y81.812 E9.63614
G1 X7.872 Y80.809 E9.6908
G1 X7.506 Y79.777 E9.74543
G1 X7.215 Y78.721 E9.80007
G1 X7.003 Y77.646 E9.85474
G1 X6.899 Y76.868 E9.8939
G1 X6.734 Y75.32 E9.97157
G1 X6.658 Y74.227 E10.02623
G1 X6.662 Y73.132 E10.08086
G1 X6.746 Y72.04 E10.1355
G1 X6.909 Y70.957 E10.19014
G1 X7.15 Y69.889 E10.24476
G1 X7.386 Y69.088 E10.28642
G1 X8.062 Y67.011 E10.39539
G1 X8.155 Y66.758 E10.40884
G1 X8.153 Y53.374 E11.07657
G1 X8.128 Y53.324 E11.07936
G1 X7.715 Y52.31 E11.13399
G1 X7.377 Y51.268 E11.18864
G1 X7.115 Y50.205 E11.24326
G1 X6.888 Y48.758 E11.31633
G1 X6.84 Y48.31 E11.33881
G1 X6.764 Y47.217 E11.39347
G1 X6.767 Y46.122 E11.4481
G1 X6.85 Y45.03 E11.50274
G1 X7.012 Y43.947 E11.55737
G1 X7.253 Y42.879 E11.61199
G1 X7.572 Y41.831 E11.66665
G1 X7.966 Y40.809 E11.72129
G1 X8.433 Y39.818 E11.77595
G1 X8.972 Y38.864 E11.83062
G1 X9.578 Y37.953 E11.8852
G1 X10.25 Y37.087 E11.93989
G1 X10.518 Y36.79 E11.95985
G1 X10.464 Y36.65 E11.96733
G1 X10.148 Y35.601 E12.02199
G1 X9.909 Y34.532 E12.07664
G1 X9.749 Y33.448 E12.13131
G1 X9.668 Y32.356 E12.18594
G1 X9.668 Y31.261 E12.24057
G1 X9.747 Y30.169 E12.29519
G1 X9.906 Y29.085 E12.34985
G1 X10.143 Y28.016 E12.40448
G1 X10.543 Y26.725 E12.47191
G1 X11.069 Y25.262 E12.54947
G1 X11.477 Y24.246 E12.60409
G1 X11.958 Y23.262 E12.65874
G1 X12.509 Y22.315 E12.7134
G1 X13.128 Y21.412 E12.76802
G1 X13.812 Y20.556 E12.82268
G1 X14.556 Y19.752 E12.87733
G1 X15.356 Y19.005 E12.93194
G0 F3600 X15.695 Y19.241
G1 F1800 X16.542 Y18.569 E12.98588
G1 X17.436 Y17.962 E13.03979
G1 X18.372 Y17.423 E13.09368
G1 X19.346 Y16.955 E13.14759
G1 X20.352 Y16.56 E13.20151
G1 X21.384 Y16.24 E13.25542
G1 X22.437 Y15.998 E13.30932
G1 X23.505 Y15.834 E13.36323
G1 X24.582 Y15.749 E13.41713
G1 X25.184 Y15.737 E13.44717
G1 X26.521 Y15.737 E13.51387
G1 X27.601 Y15.777 E13.56779
G1 X28.675 Y15.897 E13.6217
G1 X29.737 Y16.096 E13.67561
G1 X30.781 Y16.372 E13.72948
G1 X31.802 Y16.726 E13.7834
G1 X32.795 Y17.154 E13.83734
G1 X33.753 Y17.654 E13.89126
G1 X34.671 Y18.223 E13.94514
G1 X35.544 Y18.859 E13.99903
G1 X36.369 Y19.558 E14.05297
G1 X37.139 Y20.316 E14.10688
G1 X37.851 Y21.129 E14.16079
G1 X38.501 Y21.992 E14.2147
G1 X39.085 Y22.901 E14.2686
G1 X39.601 Y23.85 E14.32249
G1 X39.608 Y23.865 E14.32332
G1 X39.824 Y23.425 E14.34777
G1 X40.37 Y22.492 E14.4017
G1 X40.984 Y21.603 E14.45561
G1 X41.662 Y20.762 E14.5095
G1 X42.401 Y19.973 E14.56343
G1 X43.195 Y19.241 E14.61731
G1 X44.042 Y18.569 E14.67125
G1 X44.936 Y17.962 E14.72516
G1 X45.872 Y17.423 E14.77905
G1 X46.846 Y16.955 E14.83296
G1 X47.852 Y16.56 E14.88688
G1 X48.884 Y16.24 E14.94079
G1 X49.937 Y15.998 E14.99469
G1 X51.005 Y15.834 E15.0486
G1 X52.082 Y15.749 E15.1025
G1 X52.684 Y15.737 E15.13254
G1 X54.021 Y15.737 E15.19924
G1 X55.101 Y15.777 E15.25316
G1 X56.175 Y15.897 E15.30707
G1 X57.237 Y16.096 E15.36098
G1 X58.281 Y16.372 E15.41485
G1 X59.302 Y16.726 E15.46877
G1 X60.295 Y17.154 E15.52271
G1 X61.253 Y17.654 E15.57663
G1 X62.171 Y18.223 E15.63051
G1 X63.044 Y18.859 E15.6844
G1 X63.869 Y19.558 E15.73834
G1 X64.639 Y20.316 E15.79225
G1 X65.351 Y21.129 E15.84617
G1 X66.001 Y21.992 E15.90007
G1 X66.585 Y22.901 E15.95397
G1 X67.101 Y23.85 E16.00786
G1 X67.545 Y24.835 E16.06177
G1 X67.76 Y25.397 E16.09179
G1 X68.286 Y26.86 E16.16935
G1 X68.614 Y27.89 E16.22328
G1 X68.864 Y28.941 E16.27718
G1 X69.037 Y30.008 E16.3311
G1 X69.129 Y31.084 E16.38498
G1 X69.142 Y32.165 E16.43892
G1 X69.075 Y33.243 E16.4928
G1 X68.929 Y34.314 E16.54673
G1 X68.704 Y35.371 E16.60064
G1 X68.401 Y36.408 E16.65454
G1 X68.057 Y37.326 E16.70345
G1 X68.372 Y37.691 E16.72751
G1 X69.015 Y38.56 E16.78144
G1 X69.591 Y39.474 E16.83534
G1 X70.098 Y40.428 E16.88924
G1 X70.534 Y41.417 E16.94316
G1 X70.894 Y42.436 E16.99708
G1 X71.179 Y43.478 E17.05097
G1 X71.386 Y44.539 E17.1049
G1 X71.514 Y45.612 E17.15882
G1 X71.562 Y46.691 E17.2127
G1 X71.53 Y47.771 E17.26661
G1 X71.418 Y48.846 E17.32053
G1 X71.299 Y49.56 E17.35664
G1 X71.175 Y50.204 E17.38936
G1 X70.931 Y51.257 E17.44329
G1 X70.611 Y52.289 E17.49719
G1 X70.215 Y53.294 E17.55108
G1 X70.184 Y53.357 E17.55459
G1 X70.186 Y66.84 E18.22726
G1 X70.294 Y67.139 E18.24312
G1 X70.971 Y69.218 E18.3522
G1 X71.268 Y70.257 E18.40611
G1 X71.486 Y71.316 E18.46005
G1 X71.626 Y72.387 E18.51394
G1 X71.686 Y73.466 E18.56786
G1 X71.667 Y74.546 E18.62174
G1 X71.606 Y75.296 E18.65929
G1 X71.438 Y76.862 E18.73786
G1 X71.283 Y77.932 E18.7918
G1 X71.049 Y78.987 E18.84572
G1 X70.738 Y80.022 E18.89963
G1 X70.351 Y81.031 E18.95355
G1 X69.891 Y82.008 E19.00742
G1 X69.549 Y82.633 E19.04297
G1 X68.801 Y83.922 E19.11732
G1 X68.224 Y84.836 E19.17124
G1 X67.582 Y85.704 E19.22511
G1 X66.877 Y86.523 E19.27902
G1 X66.113 Y87.288 E19.33296
G1 X65.295 Y87.994 E19.38687
G1 X64.762 Y88.4 E19.4203
G1 X63.507 Y89.313 E19.49772
G1 X62.61 Y89.916 E19.55165
G1 X61.671 Y90.451 E19.60556
G1 X60.696 Y90.915 E19.65943
G1 X59.688 Y91.306 E19.71337
G1 X58.654 Y91.621 E19.7673
G1 X57.865 Y91.806 E19.80773
G1 X56.356 Y92.117 E19.8846
G1 X55.29 Y92.296 E19.93853
G1 X54.214 Y92.396 E19.99244
G1 X53.134 Y92.415 E20.04633
G1 X52.055 Y92.355 E20.10024
G1 X50.984 Y92.215 E20.15413
G1 X50.423 Y92.109 E20.18262
G1 X48.92 Y91.795 E20.25922
G1 X47.871 Y91.535 E20.31314
G1 X46.845 Y91.199 E20.367
G1 X46.111 Y90.896 E20.40662
G1 X32.627 Y90.898 E21.07934
G1 X32.624 Y90.899 E21.07949
G1 X31.616 Y91.289 E21.13342
G1 X30.582 Y91.603 E21.18733
G1 X29.861 Y91.773 E21.22429
G1 X28.309 Y92.099 E21.30341
G1 X27.244 Y92.282 E21.35732
G1 X26.169 Y92.386 E21.4112
G1 X25.088 Y92.409 E21.46514
G1 X24.009 Y92.353 E21.51905
G1 X22.937 Y92.217 E21.57296
G1 X22.308 Y92.099 E21.60489
G1 X20.822 Y91.787 E21.68064
G1 X19.773 Y91.526 E21.73457
G1 X18.747 Y91.189 E21.78845
G1 X17.748 Y90.776 E21.84238
G1 X16.783 Y90.29 E21.89628
G1 X15.856 Y89.735 E21.95019
G1 X15.247 Y89.315 E21.9871
G1 X14 Y88.41 E22.06397
G1 X13.149 Y87.744 E22.11788
G1 X12.35 Y87.016 E22.17181
G1 X11.607 Y86.231 E22.22573
G1 X10.925 Y85.394 E22.2796
G1 X10.306 Y84.508 E22.33352
G1 X9.932 Y83.895 E22.36934
G1 X9.172 Y82.579 E22.44516
G1 X8.666 Y81.624 E22.49908
G1 X8.233 Y80.635 E22.55294
G1 X7.874 Y79.615 E22.60689
G1 X7.592 Y78.572 E22.6608
G1 X7.387 Y77.511 E22.71471
G1 X7.297 Y76.825 E22.74923
G1 X7.132 Y75.277 E22.82689
G1 X7.058 Y74.199 E22.8808
G1 X7.063 Y73.119 E22.93468
G1 X7.148 Y72.042 E22.98858
G1 X7.313 Y70.974 E23.0425
G1 X7.556 Y69.921 E23.09641
G1 X7.767 Y69.211 E23.13337
G1 X8.443 Y67.134 E23.24234
G1 X8.555 Y66.83 E23.2585
G1 X8.553 Y53.281 E23.93446
G1 X8.487 Y53.147 E23.94192
G1 X8.081 Y52.145 E23.99585
G1 X7.749 Y51.117 E24.04975
G1 X7.495 Y50.067 E24.10364
G1 X7.286 Y48.715 E24.1719
G1 X7.238 Y48.267 E24.19438
G1 X7.163 Y47.189 E24.24829
G1 X7.167 Y46.109 E24.30217
G1 X7.252 Y45.032 E24.35607
G1 X7.416 Y43.964 E24.40998
G1 X7.659 Y42.911 E24.46389
G1 X7.978 Y41.878 E24.51783
G1 X8.374 Y40.873 E24.57172
G1 X8.842 Y39.899 E24.62563
G1 X9.381 Y38.963 E24.67952
G1 X9.988 Y38.069 E24.73343
G1 X10.66 Y37.222 E24.78737
G1 X10.979 Y36.876 E24.81085
G1 X10.764 Y36.286 E24.84218
G1 X10.471 Y35.246 E24.89608
G1 X10.255 Y34.188 E24.94996
G1 X10.117 Y33.116 E25.00388
G1 X10.06 Y32.037 E25.05779
G1 X10.082 Y30.956 E25.11173
G1 X10.185 Y29.881 E25.16561
G1 X10.366 Y28.816 E25.2195
G1 X10.626 Y27.767 E25.27342
G1 X10.919 Y26.86 E25.32097
G1 X11.445 Y25.397 E25.39854
G1 X11.848 Y24.395 E25.45242
G1 X12.324 Y23.425 E25.50632
G1 X12.87 Y22.492 E25.56026
G1 X13.484 Y21.603 E25.61416
G1 X14.162 Y20.762 E25.66805
G1 X14.901 Y19.973 E25.72199
G1 X15.695 Y19.241 E25.77587
G0 F3600 X16.034 Y19.478
G1 F1800 X16.874 Y18.823 E25.82901
G1 X17.761 Y18.232 E25.88218
G1 X18.69 Y17.709 E25.93537
G1 X19.655 Y17.258 E25.98851
G1 X20.651 Y16.88 E26.04166
G1 X21.673 Y16.578 E26.09483
G1 X22.715 Y16.353 E26.14801
G1 X23.771 Y16.208 E26.20119
G1 X25.184 Y16.137 E26.27178
G1 X26.521 Y16.137 E26.33848
G1 X27.586 Y16.177 E26.39165
G1 X28.645 Y16.297 E26.44482
G1 X29.692 Y16.496 E26.49799
G1 X30.721 Y16.772 E26.55114
G1 X31.726 Y17.125 E26.60429
G1 X32.702 Y17.553 E26.65746
G1 X33.644 Y18.053 E26.71066
G1 X34.545 Y18.621 E26.7638
G1 X35.401 Y19.256 E26.81697
G1 X36.207 Y19.953 E26.87013
G1 X36.958 Y20.709 E26.9233
G1 X37.651 Y21.519 E26.97648
G1 X38.281 Y22.378 E27.02963
G1 X38.845 Y23.282 E27.08279
G1 X39.339 Y24.226 E27.13594
G1 X39.597 Y24.846 E27.16944
G1 X39.719 Y24.544 E27.18569
G1 X40.19 Y23.588 E27.23886
G1 X40.732 Y22.67 E27.29205
G1 X41.34 Y21.795 E27.34521
G1 X42.013 Y20.969 E27.39836
G1 X42.745 Y20.195 E27.45151
G1 X43.534 Y19.478 E27.5047
G1 X44.374 Y18.823 E27.55784
G1 X45.261 Y18.232 E27.61102
G1 X46.19 Y17.709 E27.66421
G1 X47.155 Y17.258 E27.71735
G1 X48.151 Y16.88 E27.7705
G1 X49.173 Y16.578 E27.82367
G1 X50.215 Y16.353 E27.87685
G1 X51.271 Y16.208 E27.93003
G1 X52.684 Y16.137 E28.00061
G1 X54.021 Y16.137 E28.06732
G1 X55.086 Y16.177 E28.12049
G1 X56.145 Y16.297 E28.17366
G1 X57.192 Y16.496 E28.22683
G1 X58.221 Y16.772 E28.27998
G1 X59.226 Y17.125 E28.33312
G1 X60.202 Y17.553 E28.38629
G1 X61.144 Y18.053 E28.4395
G1 X62.045 Y18.621 E28.49264
G1 X62.901 Y19.256 E28.54581
G1 X63.707 Y19.953 E28.59897
G1 X64.458 Y20.709 E28.65213
G1 X65.151 Y21.519 E28.70532
G1 X65.781 Y22.378 E28.75846
G1 X66.345 Y23.282 E28.81162
G1 X66.839 Y24.226 E28.86478
G1 X67.384 Y25.533 E28.93543
G1 X67.91 Y26.996 E29.01299
G1 X68.232 Y28.011 E29.06611
G1 X68.478 Y29.048 E29.11929
G1 X68.645 Y30.101 E29.17248
G1 X68.733 Y31.163 E29.22564
G1 X68.741 Y32.228 E29.27878
G1 X68.668 Y33.292 E29.33199
G1 X68.517 Y34.346 E29.38511
G1 X68.287 Y35.387 E29.43829
G1 X67.979 Y36.407 E29.49145
G1 X67.597 Y37.398 E29.54444
G1 X68.187 Y38.103 E29.5903
G1 X68.808 Y38.969 E29.64347
G1 X69.361 Y39.879 E29.69659
G1 X69.846 Y40.829 E29.74981
G1 X70.257 Y41.812 E29.80297
G1 X70.594 Y42.823 E29.85613
G1 X70.854 Y43.856 E29.90928
G1 X71.035 Y44.906 E29.96243
G1 X71.138 Y45.967 E30.01562
G1 X71.16 Y47.033 E30.06881
G1 X71.103 Y48.097 E30.12197
G1 X70.906 Y49.485 E30.19191
G1 X70.782 Y50.129 E30.22463
G1 X70.541 Y51.167 E30.27779
G1 X70.223 Y52.184 E30.33096
G1 X69.83 Y53.175 E30.38414
G1 X69.784 Y53.269 E30.38936
G1 X69.786 Y66.905 E31.06967
G1 X69.914 Y67.263 E31.08863
G1 X70.591 Y69.342 E31.19772
G1 X70.883 Y70.367 E31.25089
G1 X71.097 Y71.411 E31.30406
G1 X71.232 Y72.468 E31.35722
G1 X71.287 Y73.532 E31.41037
G1 X71.263 Y74.598 E31.46357
G1 X71.208 Y75.254 E31.49641
G1 X71.04 Y76.82 E31.57499
G1 X70.887 Y77.874 E31.62812
G1 X70.655 Y78.914 E31.68129
G1 X70.345 Y79.934 E31.73447
G1 X69.96 Y80.928 E31.78765
G1 X69.502 Y81.89 E31.84081
G1 X69.203 Y82.432 E31.87169
G1 X68.455 Y83.721 E31.94604
G1 X67.886 Y84.622 E31.99921
G1 X67.251 Y85.478 E32.05238
G1 X66.553 Y86.284 E32.10558
G1 X65.797 Y87.035 E32.15874
G1 X64.987 Y87.727 E32.21189
G1 X64.527 Y88.077 E32.24073
G1 X63.272 Y88.99 E32.31815
G1 X62.387 Y89.584 E32.37133
G1 X61.46 Y90.11 E32.42451
G1 X60.497 Y90.565 E32.47764
G1 X59.502 Y90.947 E32.53082
G1 X58.481 Y91.253 E32.58399
G1 X57.784 Y91.415 E32.61969
G1 X56.275 Y91.726 E32.69656
G1 X55.224 Y91.901 E32.74972
G1 X54.163 Y91.998 E32.80287
G1 X53.098 Y92.015 E32.85601
G1 X52.034 Y91.951 E32.90919
G1 X50.505 Y91.718 E32.98635
